X: 1
T: Cluny Castle
B: Lowe's Collection
R: reel
Z: 2005 John Chambers <jc:trillian.mit.edu>
M: C|
L: 1/8
K: A
E | "A"A2c{B}A "D"GAFA | "A"EAdc "E7"cBBc | "A"A2c{B}A "D"GAFA | "E7"EdcB "A"cAA :|
e | "A"aece Aece | "E"dB"A"cA "E7"GBBg | "A"aece Aece | "D"df"E7"ed "A"cAA ||
g | "A"aece Aece | "D"df"A"ce "B"fB"E7"Bd | "A"cAGA "D"FAdf | "E7"ecdB "A"cAA |]
